X:1
T:The Chicken
T:After you've gone
T:Intro
C:Pee-Wee Ellis
L:1/8
Q:1/4=80
M:4/4
K:Bb
V:1 treble-8 nm="Acoustic Guitar"
V:1
"Fmaj7""^A" z CDF CDFD |"G7/D" G A2"C7" G- G4 |"Fmaj7" z CDF CDFD |"G7/D" G A2"C7" G- G4 || %4
w: Now won't you lis- ten hon- ey|while I say _|How could you tell me that you're|going a- way _|
"A7#5" z2 A2 ^G2 =G2 |"Dm7" F"A7" =E2"Dm7" D- D4 |"G7" z2 G2"D7" ^F2 =F2 | %7
w: Don't say that|we must part _|Don't break your|
"C7" =E"G7" F2"C7" G- G4 ||"Fmaj7""^B" z CDF CDFD |"G7/D" G A2"C7" G- G4 |"F7" G2 A2 G F2 D- | %11
w: ba- bys heart _|You know I loved you for these|ma- ny years _|Loved you night and day|
"Bb7" D6 z2 |"Bdim7" z D=EF DEFG |"F7" A G2 C- C4 |"G7" A D2 D-"C7" D2 C2 |"Fmaj7" F4-"C7b9" F4 || %16
w: _|O ho- ney ba- by can't you|see my tears _|lis- ten while _ I|say _|

